static/img/showcase/sly_logo.svg

<svg fill="none" height="264" viewBox="0 0 304 264" width="304" xmlns="http://www.w3.org/2000/svg"><path d="m278.666 0-25.333 76 16.889 59.111c12.459-9.528 24.042-103.9166 8.444-135.111z" fill="#5f646e"/><path d="m25.3336 0 25.3328 76-16.8888 59.111c-12.4584-9.528-24.04161-103.9166-8.444-135.111z" fill="#5f646e"/><path d="m253.334 76 25.332-76c-17.175.1064-43.466 20.88-61.86 43.1456-20.044-10.3179-42.262-15.7008-64.806-15.7008s-44.762 5.3829-64.8056 15.7008c-18.3944-22.2656-44.6856-43.0392-61.8608-43.1456l25.3328 76c-16.8888 25.334-33.7776 78.361-50.6664 100 0 0 50.6664 88 152 88 101.334 0 152-88 152-88-16.889-21.639-33.778-74.666-50.666-100z" fill="#3c3c46"/><path d="m87.1943 56.1312c20.3267-9.3439 42.4337-14.1816 64.8057-14.1816s44.479 4.8377 64.805 14.1816c16.384-17.9128 38.993-34.6672 55.885-38.2032l5.976-17.928c-17.175.1064-43.466 20.88-61.861 43.1456-20.043-10.3179-42.261-15.7008-64.805-15.7008s-44.762 5.3829-64.8057 15.7008c-18.3944-22.2656-44.6856-43.0392-61.8608-43.1456l5.976 17.928c16.892 3.536 39.5008 20.2904 55.8848 38.2032z" fill="#4b505a"/><path d="m173.218 163.972c1.223 4.567 3.334 8.847 6.212 12.598s6.467 6.898 10.561 9.262c8.269 4.774 18.095 6.067 27.318 3.596 4.566-1.224 8.847-3.335 12.598-6.213 3.75-2.878 6.898-6.466 9.261-10.56 2.364-4.095 3.898-8.614 4.515-13.302.618-4.687.305-9.45-.918-14.016z" fill="#9745ff"/><path d="m219.582 151.549c1.394 3.457 1.397 7.319.009 10.779-1.389 3.459-4.062 6.247-7.459 7.781-6.4 1.715-13.445-3.814-15.732-12.349" fill="#282834"/><path d="m130.782 163.972c-2.471 9.223-8.505 17.086-16.773 21.86-8.269 4.774-18.0954 6.067-27.3179 3.596-9.2226-2.471-17.0857-8.505-21.8596-16.773-4.7739-8.269-6.0676-18.096-3.5964-27.318z" fill="#9745ff"/><path d="m84.4175 151.549c-1.394 3.457-1.3969 7.319-.0083 10.779 1.3886 3.459 4.0613 6.247 7.4587 7.781 6.4 1.716 13.4451-3.814 15.7321-12.349" fill="#282834"/><path d="m152 244c-1.061 0-2.078-.421-2.828-1.172-.751-.75-1.172-1.767-1.172-2.828v-16c0-1.061.421-2.078 1.172-2.828.75-.751 1.767-1.172 2.828-1.172s2.078.421 2.828 1.172c.751.75 1.172 1.767 1.172 2.828v16c0 1.061-.421 2.078-1.172 2.828-.75.751-1.767 1.172-2.828 1.172z" fill="#282834"/><path d="m136 208.022c0 8.836 16 16 16 16s16-7.164 16-16-7.163-8-16-8-16-.837-16 8z" fill="#5f646e"/></svg>

<svg width="304" height="264" viewBox="0 0 304 264" fill="none" xmlns="http://www.w3.org/2000/svg">
<path d="M278.666 0L253.333 76L270.222 135.111C282.681 125.583 294.264 31.1944 278.666 0Z" fill="#5F646E"/>
<path d="M25.3336 0L50.6664 76L33.7776 135.111C21.3192 125.583 9.73599 31.1944 25.3336 0Z" fill="#5F646E"/>
<path d="M253.334 76L278.666 0C261.491 0.1064 235.2 20.88 216.806 43.1456C196.762 32.8277 174.544 27.4448 152 27.4448C129.456 27.4448 107.238 32.8277 87.1944 43.1456C68.8 20.88 42.5088 0.1064 25.3336 0L50.6664 76C33.7776 101.334 16.8888 154.361 0 176C0 176 50.6664 264 152 264C253.334 264 304 176 304 176C287.111 154.361 270.222 101.334 253.334 76Z" fill="#3C3C46"/>
<path d="M87.1943 56.1312C107.521 46.7873 129.628 41.9496 152 41.9496C174.372 41.9496 196.479 46.7873 216.805 56.1312C233.189 38.2184 255.798 21.464 272.69 17.928L278.666 0C261.491 0.1064 235.2 20.88 216.805 43.1456C196.762 32.8277 174.544 27.4448 152 27.4448C129.456 27.4448 107.238 32.8277 87.1943 43.1456C68.7999 20.88 42.5087 0.1064 25.3335 0L31.3095 17.928C48.2015 21.464 70.8103 38.2184 87.1943 56.1312V56.1312Z" fill="#4B505A"/>
<path d="M173.218 163.972C174.441 168.539 176.552 172.819 179.43 176.57C182.308 180.321 185.897 183.468 189.991 185.832C198.26 190.606 208.086 191.899 217.309 189.428C221.875 188.204 226.156 186.093 229.907 183.215C233.657 180.337 236.805 176.749 239.168 172.655C241.532 168.56 243.066 164.041 243.683 159.353C244.301 154.666 243.988 149.903 242.765 145.337L173.218 163.972Z" fill="#9745FF"/>
<path d="M219.582 151.549C220.976 155.006 220.979 158.868 219.591 162.328C218.202 165.787 215.529 168.575 212.132 170.109C205.732 171.824 198.687 166.295 196.4 157.76" fill="#282834"/>
<path d="M130.782 163.972C128.311 173.195 122.277 181.058 114.009 185.832C105.74 190.606 95.9136 191.899 86.6911 189.428C77.4685 186.957 69.6054 180.923 64.8315 172.655C60.0576 164.386 58.7639 154.559 61.2351 145.337L130.782 163.972Z" fill="#9745FF"/>
<path d="M84.4175 151.549C83.0235 155.006 83.0206 158.868 84.4092 162.328C85.7978 165.787 88.4705 168.575 91.8679 170.109C98.2679 171.825 105.313 166.295 107.6 157.76" fill="#282834"/>
<path d="M152 244C150.939 244 149.922 243.579 149.172 242.828C148.421 242.078 148 241.061 148 240V224C148 222.939 148.421 221.922 149.172 221.172C149.922 220.421 150.939 220 152 220C153.061 220 154.078 220.421 154.828 221.172C155.579 221.922 156 222.939 156 224V240C156 241.061 155.579 242.078 154.828 242.828C154.078 243.579 153.061 244 152 244Z" fill="#282834"/>
<path d="M136 208.022C136 216.858 152 224.022 152 224.022C152 224.022 168 216.858 168 208.022C168 199.186 160.837 200.022 152 200.022C143.163 200.022 136 199.185 136 208.022Z" fill="#5F646E"/>
</svg>
